!!!COM: Corelli, Arcangelo
!!!OTL: 
!!!ONM: Opus 3, No. 2
!!!OMV: 4
!!!CDT: 1653/2/17/-1713/1/8/
!!!OCY: Italia
**kern	**kern	**kern	**kern
*clefC	*clefC	*clefG	*clefG
*k[f#c#]	*k[f#c#]	*k[f#c#]	*k[f#c#]
*D:	*D:	*D:	*D:
*M6/8	*M6/8	*M6/8	*M6/8
=1	=1	=1	=1
2.r	2.r	2.r	8dd
.	.	.	8ff#
.	.	.	8dd
.	.	.	16ee
.	.	.	16ff#
.	.	.	16gg
.	.	.	16ff#
.	.	.	8ee
=2	=2	=2	=2
2.r	2.r	2.r	16ff#
.	.	.	16gg
.	.	.	16aa
.	.	.	16gg
.	.	.	8ff#
.	.	.	4ee
.	.	.	8dd
=3	=3	=3	=3
2.r	2.r	8a	8cc#
.	.	8cc#	8ee
.	.	8a	8cc#
.	.	16b	16dd
.	.	16cc#	16ee
.	.	16dd	16ff#
.	.	16cc#	16ee
.	.	8b	8dd
=4	=4	=4	=4
2.r	2.r	16cc#	16ee
.	.	16dd	16dd
.	.	16ee	16cc#
.	.	16dd	16b
.	.	8cc#	8a
.	.	4b	4g#
.	.	8a	8a
=5	=5	=5	=5
2.r	2.r	8ff#	8aa
.	.	8dd	8ff#
.	.	8ff#	8aa
.	.	16ee	16gg
.	.	16dd	16ff#
.	.	16cc#	16ee
.	.	16dd	16ff#
.	.	8ee	8gg
=6	=6	=6	=6
4.r	4.r	8ee	8gg
.	.	8cc#	8ee
.	.	8ee	8gg
8D	8D	4a	4ff#
8F#	8F#	.	.
8D	8D	8aa	8ff#
=7	=7	=7	=7
8E	16E	4gg	4ee
.	16F#	.	.
8G	16G	.	.
.	16F#	.	.
8E	8E	8gg	8ee
8F#	16F#	4ff#	4a
.	16G	.	.
8A	16A	.	.
.	16G	.	.
8F#	8F#	8a	8aa
=8	=8	=8	=8
4E	4E	4cc#	4gg
8D	8D	8dd	8ff#
8d	8d	8ff#	[4.bb
8B	8B	8dd	.
8d	8d	8ff#	.
=9	=9	=9	=9
4.c#	4.c#	4.ee	8bb]
.	.	.	8aa
.	.	.	8gg#
8c#	8c#	8ee	[4.aa
8A	8A	8cc#	.
8c#	8c#	8ee	.
=10	=10	=10	=10
4.B	4.B	4.dd	8aa]
.	.	.	8gg#
.	.	.	8ff#
8E	8E	8dd	4.gg#
8G#	8G#	8b	.
8E	8E	8dd	.
=11	=11	=11	=11
4.AA	4.AA	4.cc#	8aa
.	.	.	8ccc#
.	.	.	8aa
4.r	4.r	4.r	8ddd
.	.	.	8bb
.	.	.	8ddd
=12	=12	=12	=12
4.AA	4.AA	8aa	4.ccc#
.	.	8ccc#	.
.	.	8aa	.
4.r	4.r	8ddd	4.bb
.	.	8bb	.
.	.	8ddd	.
=13	=13	=13	=13
8A	8A	4.ccc#	4.aa
8c#	8c#	.	.
8A	8A	.	.
8d	8d	4.bb	8ff#
8B	8B	.	8dd
8d	8d	.	8ff#
=14	=14	=14	=14
4.c#	4.c#	4.aa	8ee
.	.	.	8cc#
.	.	.	8ee
4.B	4.B	4.gg#	8dd
.	.	.	8b
.	.	.	8dd
=15	=15	=15	=15
8A	8A	[2.aa	4.cc#
8c#	8c#	.	.
8A	8A	.	.
8G#	8G#	.	4.r
8B	8B	.	.
8G#	8G#	.	.
=16	=16	=16	=16
8F#	8F#	2.aa_	[2.aa
8A	8A	.	.
8F#	8F#	.	.
8E	8E	.	.
8G#	8G#	.	.
8E	8E	.	.
=17	=17	=17	=17
8D	8D	2.aa_	2.aa]
8F#	8F#	.	.
8D	8D	.	.
8C#	8C#	.	.
8E	8E	.	.
8C#	8C#	.	.
=18	=18	=18	=18
8D	8D	4.aa]	2.bb
8F#	8F#	.	.
8D	8D	.	.
8E	8E	4.gg#	.
8D	8D	.	.
8E	8E	.	.
=19	=19	=19	=19
2.AA	2.AA	2.aa	2.ccc#
=20	=20	=20	=20
2.r	2.r	2.r	8ee
.	.	.	8cc#
.	.	.	8ee
.	.	.	16dd
.	.	.	16cc#
.	.	.	16b
.	.	.	16cc#
.	.	.	8dd
=21	=21	=21	=21
2.r	2.r	8ee	8cc#
.	.	8cc#	8a
.	.	8ee	8cc#
.	.	16dd	4.b
.	.	16cc#	.
.	.	16b	.
.	.	16cc#	.
.	.	8dd	.
=22	=22	=22	=22
8A	8A	8cc#	4.a
8F#	8F#	8a	.
8A	8A	8cc#	.
8G	16G	4.b	4.r
.	16F#	.	.
8E	16E	.	.
.	16F#	.	.
8G	8G	.	.
=23	=23	=23	=23
8F#	8F#	4.a	8aa
8D	8D	.	8ff#
8F#	8F#	.	8aa
4.E	4.E	4.r	16gg
.	.	.	16ff#
.	.	.	16ee
.	.	.	16ff#
.	.	.	8gg
=24	=24	=24	=24
4.D	4.D	8aa	8ff#
.	.	8ff#	8dd
.	.	8aa	8ff#
4.E	4.E	16gg	16ee
.	.	16ff#	16dd
.	.	16ee	16cc#
.	.	16ff#	16dd
.	.	8gg	8ee
=25	=25	=25	=25
4F#	4F#	8ff#	8dd
.	.	8dd	8a
8D	8D	8ff#	8dd
4E	4E	4ee	4cc#
8E	8E	8dd	8b
=26	=26	=26	=26
4F#	4F#	4cc#	8a#
.	.	.	8f#
8F#	8F#	8a#	4ff#
4G#	4G#	4b	.
.	.	.	16gg#
.	.	.	16ff#
8A#	8A#	8cc#	[8ee
=27	=27	=27	=27
4B	4B	4f#	8ee]
.	.	.	16ff#
.	.	.	16ee
8D	8D	8b	[8dd
8E	8E	8b	8dd]
8F#	8F#	4a#	4cc#
8FF#	8FF#	.	.
=28	=28	=28	=28
4BB	4BB	4.b	4b
8BB	8BB	.	8bb
4C#	4C#	4.r	8bb
.	.	.	8aa
8D#	8D#	.	8aa
=29	=29	=29	=29
4E	4E	4r	8aa
.	.	.	8gg
8G	8G	8bb	8gg
4A	4A	8bb	8gg
.	.	8aa	8ff#
8B	8B	8aa	8ff#
=30	=30	=30	=30
4c	4c	8aa	8ff#
.	.	8gg	8ee
8G	8G	8gg	8bb
4A	4A	8gg	8bb
.	.	8ff#	8aa
8B	8B	8ff#	8aa
=31	=31	=31	=31
4c	4c	8ff#	8aa
.	.	8ee	8gg
8G	8G	8ee	8gg
8A	8A	8ee	8gg
8B	8B	4dd#	4ff#
8BB	8BB	.	.
=32	=32	=32	=32
4E	4E	4.ee	4ee
8E	8E	.	8ee
8F#	8F#	4.r	16dd
.	.	.	16cc#
8G#	8G#	.	16b
.	.	.	16cc#
8E	8E	.	8dd
=33	=33	=33	=33
4A	4A	4r	8cc#
.	.	.	8a
8F#	8F#	8aa	8a
8E	8E	16gg	8b
.	.	16ff#	.
8A	8A	16ee	4cc#
.	.	16ff#	.
8AA	8AA	8gg	.
=34	=34	=34	=34
4D	4D	8ff#	4dd
.	.	8dd	.
8B	8B	8dd	8ddd
8A	8A	8ee	16ccc
.	.	.	16bb
8d	8d	4ff#	16aa
.	.	.	16bb
8D	8D	.	8ccc
=35	=35	=35	=35
4.G	4.G	4gg	8bb
.	.	.	8gg
.	.	8gg	8bb
4.D	4.D	16ff#	[4.aa
.	.	16ee	.
.	.	16dd	.
.	.	16ee	.
.	.	8ff#	.
=36	=36	=36	=36
4.GG	4.GG	4.b	8aa]
.	.	.	8bb
.	.	.	8aa
4.AA	4.AA	[4.ee	8gg
.	.	.	8aa
.	.	.	8gg
=37	=37	=37	=37
4.D	4.D	8ee]	2ff#
.	.	8dd	.
.	.	8cc#	.
4.F#	4.F#	[4.dd	.
.	.	.	8gg
.	.	.	8aa
=38	=38	=38	=38
4.G	4.G	8dd]	[2.ee
.	.	8cc#	.
.	.	8b	.
4.A	4.A	8cc#	.
.	.	8b	.
.	.	8cc#	.
=39	=39	=39	=39
4.B	4.B	[2.dd	4.ee]
8F#	8F#	.	8aa
8E	8E	.	8gg
8D	8D	.	8ff#
=40	=40	=40	=40
8G	8G	2dd_	8bb
8F#	8F#	.	16aa
.	.	.	16gg
8G	8G	.	8ff#
4A	4A	.	4.ee
.	.	8dd]	.
8AA	8AA	8cc#	.
=41	=41	=41	=41
4D	4D	4.dd	4dd
8F#	8F#	.	8a
4G	4G	4r	8b
.	.	.	8ee
8GG	8GG	8g	8b
=42	=42	=42	=42
8AA	8AA	8g	8cc#
8FF#	8FF#	16a	8dd
.	.	16g	.
8GG	8GG	8f#	8d
4AA	4AA	4e	4d
8AA	8AA	8a	8c#
=43	=43	=43	=43
2.DD	2.DD	2.f#	2.d
==	==	==	==
*-	*-	*-	*-
!!!RWG: This file only contains pitch and duration data.
!!!RWG: Transposing instruments are not transposed.
!!!RWG: Durations of rests and tied notes may be interpreted.
!!!RWG: Key is interpreted using the Humdrum key tool.
!!!SCA: 
!!!YOR: Chrysander Edition
!!!AGN: chamber
!!!AFT: stage1
!!!ENC: F. Bennion
!!!END: 1997/04/15
!!!AST: baroque
!!!YEC: Copyright 1994, Center for Computer Assisted Research in the Humanities
!!!YEM: Rights to all derivative electronic formats reserved.
!!!YEM: Refer to licensing agreement for further details.
!!!YEN: United States of America
!!!EED: W.B. Hewlett
!!!KEY: 1486741947
!!!EMD: Converted from MuseData to Humdrum Aug 9, 1999, by Bret Aarden using muse2kern.
!!!VTS: 326959355
